en/_assets/wiki/svg/type-number.svg

<svg xmlns="http://www.w3.org/2000/svg" xmlns:xlink="http://www.w3.org/1999/xlink" width="16" height="16" class="yc-icon GridTable-HeaderCellIcon" fill="currentColor" stroke="none" aria-hidden="true"><svg viewBox="0 0 14 13" xmlns="http://www.w3.org/2000/svg"><path d="M12.4688 3.46875H10.418L10.8008 1.41797C10.8555 1.0625 10.6367 0.707031 10.2812 0.652344C9.92578 0.597656 9.57031 0.816406 9.51562 1.17188L9.10547 3.46875H6.07031L6.42578 1.41797C6.48047 1.0625 6.26172 0.707031 5.90625 0.652344C5.55078 0.597656 5.19531 0.816406 5.14062 1.17188L4.73047 3.46875H2.40625C2.02344 3.46875 1.75 3.76953 1.75 4.15234C1.75 4.50781 2.02344 4.78125 2.40625 4.78125H4.48438L3.77344 8.71875H1.53125C1.14844 8.71875 0.875 9.01953 0.875 9.375C0.875 9.75781 1.14844 10.0312 1.53125 10.0312H3.55469L3.17188 12.1094C3.11719 12.4648 3.33594 12.8203 3.69141 12.875C3.74609 12.875 3.77344 12.875 3.82812 12.875C4.12891 12.875 4.40234 12.6562 4.45703 12.3555L4.86719 10.0312H7.90234L7.54688 12.1094C7.46484 12.4648 7.71094 12.8203 8.06641 12.875C8.12109 12.875 8.14844 12.875 8.20312 12.875C8.50391 12.875 8.77734 12.6562 8.83203 12.3555L9.24219 10.0312H11.5938C11.9492 10.0312 12.25 9.75781 12.25 9.40234C12.25 9.04688 11.9492 8.74609 11.5938 8.74609H9.48828L10.1992 4.80859L12.4688 4.78125C12.8242 4.78125 13.125 4.50781 13.125 4.15234C13.125 3.76953 12.8242 3.46875 12.4688 3.46875ZM8.14844 8.71875H5.11328L5.82422 4.78125H8.85938L8.14844 8.71875Z"></path></svg></svg>

<svg xmlns="http://www.w3.org/2000/svg" width="16" height="16" fill="currentColor" aria-hidden="true" class="yc-icon GridTable-HeaderCellIcon"><svg xmlns="http://www.w3.org/2000/svg" viewBox="0 0 14 13"><path d="M12.469 3.469h-2.051l.383-2.051c.054-.355-.164-.711-.52-.766-.355-.054-.71.164-.765.52l-.41 2.297H6.07l.356-2.051c.054-.355-.164-.711-.52-.766-.355-.054-.71.164-.765.52l-.41 2.297H2.405c-.383 0-.656.3-.656.683 0 .356.273.63.656.63h2.078l-.71 3.937H1.53c-.383 0-.656.3-.656.656 0 .383.273.656.656.656h2.024l-.383 2.078c-.055.356.164.711.52.766h.136c.3 0 .574-.219.629-.52l.41-2.324h3.035l-.355 2.078a.637.637 0 0 0 .52.766h.136c.3 0 .574-.219.629-.52l.41-2.324h2.352c.355 0 .656-.273.656-.629 0-.355-.3-.656-.656-.656H9.488L10.2 4.81l2.27-.028c.355 0 .656-.273.656-.629 0-.382-.3-.683-.656-.683Zm-4.32 5.25H5.112l.711-3.938H8.86L8.15 8.72Z"/></svg></svg>
